packages/icons/general/SignInAccount.svg

<svg width="48" height="48" viewBox="0 0 48 48" xmlns="http://www.w3.org/2000/svg">
<g>
        <path
            d="M15.7858 23.4263C15.71 23.4481 15.63 23.4508 15.553 23.4341C15.2905 23.3779 15.1211 23.1172 15.1746 22.8518C15.6532 20.4796 17.2368 18.4785 19.4107 17.4989C19.7327 17.354 20.0646 17.2322 20.4038 17.1344C20.6608 17.0603 20.9303 17.2117 21.0055 17.4725C21.0807 17.7334 20.9333 18.005 20.6762 18.0791C20.3805 18.1644 20.0894 18.2712 19.8109 18.3967C17.9195 19.249 16.5417 20.9906 16.1251 23.0556C16.108 23.1426 16.0673 23.2232 16.0074 23.2886C15.9476 23.3539 15.8709 23.4016 15.7858 23.4263Z"
            fill="white"
        />
        <path
            d="M24 24C27.8675 24 31 20.8675 31 17C31 13.1325 27.8675 10 24 10C20.1325 10 17 13.1325 17 17C17 20.8675 20.1325 24 24 24ZM24 27.5C19.3275 27.5 10 29.845 10 34.5V37C10 37.5523 10.4477 38 11 38H37C37.5523 38 38 37.5523 38 37V34.5C38 29.845 28.6725 27.5 24 27.5Z"
            fill="url(#paint0_linear)"
        />
        <g filter="url(#filter0_b)">
            <rect x="27" y="26" width="12" height="10" rx="1" fill="#1C68F3" fill-opacity="0.1" />
        </g>
        <rect x="30" y="29" width="7" height="1" rx="0.5" fill="white" />
        <rect x="30" y="32" width="7" height="1" rx="0.5" fill="white" />
        <defs>
            <filter
                id="filter0_b"
                x="23"
                y="22"
                width="20"
                height="18"
                filter-units="userSpaceOnUse"
                color-interpolation-filters="sRGB">
                <feFlood flood-opacity="0" result="BackgroundImageFix" />
                <feGaussianBlur in="BackgroundImage" std-deviation="2" />
                <feComposite in2="SourceAlpha" operator="in" result="effect1_backgroundBlur" />
                <feBlend mode="normal" in="SourceGraphic" in2="effect1_backgroundBlur" result="shape" />
            </filter>
            <linearGradient
                id="paint0_linear"
                x1="10.1712"
                y1="23.0188"
                x2="38.5701"
                y2="19.2058"
                gradient-units="userSpaceOnUse">
                <stop stop-color="#1C68F3" />
                <stop offset="1" stop-color="#6CB8FF" />
            </linearGradient>
        </defs>
    </g>
</svg>

<svg xmlns="http://www.w3.org/2000/svg" viewBox="0 0 48 48">
    <path fill="#fff" d="M15.786 23.426a.477.477 0 0 1-.233.008.495.495 0 0 1-.378-.582c.478-2.372 2.062-4.373 4.236-5.353.322-.145.654-.267.993-.365a.488.488 0 0 1 .602.338.488.488 0 0 1-.33.607 6.494 6.494 0 0 0-.865.318c-1.892.852-3.27 2.594-3.686 4.659a.483.483 0 0 1-.34.37Z"/>
    <path fill="url(#SignInAccount_svg__a)" d="M24 24c3.867 0 7-3.133 7-7s-3.133-7-7-7-7 3.133-7 7 3.133 7 7 7Zm0 3.5c-4.672 0-14 2.345-14 7V37a1 1 0 0 0 1 1h26a1 1 0 0 0 1-1v-2.5c0-4.655-9.328-7-14-7Z"/>
    <g filter="url(#SignInAccount_svg__b)">
        <rect width="12" height="10" x="27" y="26" fill="#1C68F3" fill-opacity=".1" rx="1"/>
    </g>
    <rect width="7" height="1" x="30" y="29" fill="#fff" rx=".5"/>
    <rect width="7" height="1" x="30" y="32" fill="#fff" rx=".5"/>
    <defs>
        <linearGradient id="SignInAccount_svg__a" x1="10.171" x2="38.57" y1="23.019" y2="19.206">
            <stop stop-color="#1C68F3"/>
            <stop offset="1" stop-color="#6CB8FF"/>
        </linearGradient>
        <filter id="SignInAccount_svg__b" width="20" height="18" x="23" y="22" color-interpolation-filters="sRGB">
            <feFlood flood-opacity="0" result="BackgroundImageFix"/>
            <feGaussianBlur in="BackgroundImage"/>
            <feComposite in2="SourceAlpha" operator="in" result="effect1_backgroundBlur"/>
            <feBlend in="SourceGraphic" in2="effect1_backgroundBlur" result="shape"/>
        </filter>
    </defs>
</svg>
